shared/images/iconfont/kb-iconfont-nav-devices-24.svg

<?xml version="1.0" encoding="UTF-8"?>
<svg width="24px" height="24px" viewBox="0 0 24 24" version="1.1" xmlns="http://www.w3.org/2000/svg" xmlns:xlink="http://www.w3.org/1999/xlink">
    <!-- Generator: sketchtool 49.2 (51160) - http://www.bohemiancoding.com/sketch -->
    <title>3431B525-6F68-462A-B0A6-3A6DACD1AA88</title>
    <desc>Created with sketchtool.</desc>
    <defs></defs>
    <g id="Colors,-icons" stroke="none" stroke-width="1" fill="none" fill-rule="evenodd">
        <g id="Icons-2" transform="translate(-94.000000, -404.000000)">
            <g id="kb-iconfont-nav-devices-24" transform="translate(94.000000, 404.000000)">
                <rect id="icon-area" fill="#D8D8D8" opacity="0" x="0" y="0" width="24" height="24"></rect>
                <path d="M13,14 L6,14 L6,5 L22,5 C22,3.45261175 21.4350007,2 20,2 L5,2 C3.89545338,2.00005522 3.00005522,2.89545338 3,4 L3,15 L13,15 L13,14 Z M13,14.9999707 L2.50000015,14.9999963 C1.67146399,14.9999984 0.999700079,15.6714639 0.99933,16.5 L0.99933,16.5 C0.998960134,17.3280572 1.66993327,17.99963 2.49799045,17.9999999 C2.49821368,18 2.49843692,18 2.49866015,18 L13,18 L13,14.9999707 Z M22.1818182,7 L16.8181818,7 C15.8152359,7.00320197 15.0029109,7.89675952 15,9 L15,20 C15.0029109,21.1032405 15.8152359,21.996798 16.8181818,22 L22.1818182,22 C23.1847641,21.996798 23.9987725,21.3086124 24,20 L24,9 C23.9970891,7.89675952 23.1847641,7.00320197 22.1818182,7 Z M21,19 L18,19 L18,10 L21,10 L21,19 Z" id="devices" fill="#000000" fill-rule="nonzero"></path>
            </g>
        </g>
    </g>
</svg>

<svg xmlns="http://www.w3.org/2000/svg" width="24" height="24" viewBox="0 0 24 24">
    <path fill="#000" fill-rule="nonzero" d="M13 14H6V5h16c0-1.547-.565-3-2-3H5a2 2 0 0 0-2 2v11h10v-1zm0 1H2.5a1.5 1.5 0 1 0-.001 3H13v-3zm9.182-8h-5.364c-1.003.003-1.815.897-1.818 2v11c.003 1.103.815 1.997 1.818 2h5.364c1.003-.003 1.817-.691 1.818-2V9c-.003-1.103-.815-1.997-1.818-2zM21 19h-3v-9h3v9z"/>
</svg>
